tools/download-figma-icons/icons/solid/contracting.svg

<svg width="25" height="24" viewBox="0 0 25 24" fill="none" xmlns="http://www.w3.org/2000/svg">
<path fill-rule="evenodd" clip-rule="evenodd" d="M16.5 3.75V1.5L19.5 4.5H17.25C16.8375 4.5 16.5 4.1625 16.5 3.75ZM16.5 16.5H7.5C7.0875 16.5 6.75 16.1625 6.75 15.75C6.75 15.3375 7.0875 15 7.5 15H16.5C16.9125 15 17.25 15.3375 17.25 15.75C17.25 16.1625 16.9125 16.5 16.5 16.5ZM13.5 19.5H7.5C7.0875 19.5 6.75 19.1625 6.75 18.75C6.75 18.3375 7.0875 18 7.5 18H13.5C13.9125 18 14.25 18.3375 14.25 18.75C14.25 19.1625 13.9125 19.5 13.5 19.5ZM8.25 8.99996C8.25 8.79746 8.3325 8.60996 8.4675 8.46746L11.4675 5.46746C11.76 5.17496 12.24 5.17496 12.5325 5.46746L15.5325 8.46746C15.6675 8.60996 15.75 8.79746 15.75 8.99996V12.75C15.75 13.1625 15.4125 13.5 15 13.5H9C8.5875 13.5 8.25 13.1625 8.25 12.75V8.99996ZM20.0775 17.4225L20.25 17.595L21 16.845V3.75C21 3.5475 20.9175 3.36 20.7825 3.2175L17.7825 0.2175C17.64 0.0825 17.4525 0 17.25 0H3.75C3.3375 0 3 0.3375 3 0.75V23.25C3 23.6625 3.3375 24 3.75 24H20.25C20.6625 24 21 23.6625 21 23.25V21.9675C20.76 22.0725 20.505 22.125 20.25 22.125C19.77 22.125 19.29 21.945 18.9225 21.5775L17.4225 20.0775C16.695 19.3425 16.695 18.1575 17.4225 17.4225C18.1575 16.695 19.3425 16.695 20.0775 17.4225ZM14.2492 9.30766V12.0002H9.74924V9.30766L11.9992 7.05766L14.2492 9.30766ZM20.7825 20.7825L23.7825 17.7825C24.075 17.49 24.075 17.01 23.7825 16.7175C23.49 16.425 23.01 16.425 22.7175 16.7175L21 18.4425L20.25 19.1925L19.5 18.435L19.2825 18.2175C18.99 17.925 18.51 17.925 18.2175 18.2175C17.925 18.51 17.925 18.99 18.2175 19.2825L19.7175 20.7825C19.8675 20.925 20.055 21 20.25 21C20.445 21 20.6325 20.925 20.7825 20.7825Z" fill="black"/>
</svg>

<svg xmlns="http://www.w3.org/2000/svg" width="25" height="24" fill="none" viewBox="0 0 25 24"><path fill="currentColor" fill-rule="evenodd" d="M16.5 3.75V1.5l3 3h-2.25a.75.75 0 0 1-.75-.75m0 12.75h-9a.75.75 0 0 1-.75-.75c0-.412.338-.75.75-.75h9c.413 0 .75.338.75.75 0 .413-.337.75-.75.75m-3 3h-6a.75.75 0 0 1-.75-.75c0-.413.338-.75.75-.75h6c.412 0 .75.337.75.75s-.338.75-.75.75M8.25 9c0-.203.082-.39.217-.533l3-3a.756.756 0 0 1 1.066 0l3 3c.135.143.217.33.217.533v3.75c0 .412-.338.75-.75.75H9a.75.75 0 0 1-.75-.75zm11.828 8.423.172.172.75-.75V3.75a.78.78 0 0 0-.218-.533l-3-3A.78.78 0 0 0 17.25 0H3.75A.75.75 0 0 0 3 .75v22.5c0 .413.337.75.75.75h16.5c.413 0 .75-.337.75-.75v-1.282a1.87 1.87 0 0 1-2.078-.39l-1.5-1.5a1.89 1.89 0 0 1 0-2.655 1.89 1.89 0 0 1 2.656 0m-5.829-8.115V12h-4.5V9.308L12 7.058zm6.533 11.474 3-3a.756.756 0 0 0 0-1.064.756.756 0 0 0-1.064 0L21 18.442l-.75.75-.75-.757-.218-.217a.756.756 0 0 0-1.064 0 .756.756 0 0 0 0 1.064l1.5 1.5c.15.143.337.218.532.218a.77.77 0 0 0 .532-.218" clip-rule="evenodd"/></svg>
